X:10
T:Richard's Bouree
C:Richard Lupien
Z:robin.beech@mcgill.ca
R:bouree
M:2/4
L:1/8
K:Bmin
B,>E GE | F2 F2 | G>F GA | B2B2 |B,>E GE | F2F2 | AB GF | E2E2 ::
B>B BG | EF ED | B>B BG | EF GA | B>B BG | EF ED | AB GF | E2 E2 :|
